packages/icons/raw/imported/MapsLocation.svg

<svg width="32" height="32" viewBox="0 0 32 32" fill="none" xmlns="http://www.w3.org/2000/svg">
<path d="M6.5 15.5C6.22386 15.5 6 15.7239 6 16C6 16.2761 6.22386 16.5 6.5 16.5V15.5ZM25.5 16.5C25.7761 16.5 26 16.2761 26 16C26 15.7239 25.7761 15.5 25.5 15.5V16.5ZM16.5 6.5C16.5 6.22386 16.2761 6 16 6C15.7239 6 15.5 6.22386 15.5 6.5H16.5ZM15.5 25.5C15.5 25.7761 15.7239 26 16 26C16.2761 26 16.5 25.7761 16.5 25.5H15.5ZM22.8077 16C22.8077 19.7598 19.7598 22.8077 16 22.8077V23.8077C20.3121 23.8077 23.8077 20.3121 23.8077 16H22.8077ZM16 22.8077C12.2402 22.8077 9.19231 19.7598 9.19231 16H8.19231C8.19231 20.3121 11.6879 23.8077 16 23.8077V22.8077ZM9.19231 16C9.19231 12.2402 12.2402 9.19231 16 9.19231V8.19231C11.6879 8.19231 8.19231 11.6879 8.19231 16H9.19231ZM16 9.19231C19.7598 9.19231 22.8077 12.2402 22.8077 16H23.8077C23.8077 11.6879 20.3121 8.19231 16 8.19231V9.19231ZM6.5 16.5H8.69231V15.5H6.5V16.5ZM23.3077 16.5H25.5V15.5H23.3077V16.5ZM15.5 6.5V8.69231H16.5V6.5H15.5ZM15.5 23.3077V25.5H16.5V23.3077H15.5ZM17.6923 16C17.6923 16.9346 16.9346 17.6923 16 17.6923V18.6923C17.4869 18.6923 18.6923 17.4869 18.6923 16H17.6923ZM16 17.6923C15.0654 17.6923 14.3077 16.9346 14.3077 16H13.3077C13.3077 17.4869 14.5131 18.6923 16 18.6923V17.6923ZM14.3077 16C14.3077 15.0654 15.0654 14.3077 16 14.3077V13.3077C14.5131 13.3077 13.3077 14.5131 13.3077 16H14.3077ZM16 14.3077C16.9346 14.3077 17.6923 15.0654 17.6923 16H18.6923C18.6923 14.5131 17.4869 13.3077 16 13.3077V14.3077Z" fill="black"/>
</svg>

<svg width="32" height="32" fill="none" xmlns="http://www.w3.org/2000/svg"><path d="M6.5 15.5a.5.5 0 0 0 0 1v-1Zm19 1a.5.5 0 0 0 0-1v1Zm-9-10a.5.5 0 0 0-1 0h1Zm-1 19a.5.5 0 0 0 1 0h-1Zm7.308-9.5A6.808 6.808 0 0 1 16 22.808v1A7.808 7.808 0 0 0 23.808 16h-1ZM16 22.808A6.808 6.808 0 0 1 9.192 16h-1A7.808 7.808 0 0 0 16 23.808v-1ZM9.192 16A6.808 6.808 0 0 1 16 9.192v-1A7.808 7.808 0 0 0 8.192 16h1ZM16 9.192A6.808 6.808 0 0 1 22.808 16h1A7.808 7.808 0 0 0 16 8.192v1ZM6.5 16.5h2.192v-1H6.5v1Zm16.808 0H25.5v-1h-2.192v1ZM15.5 6.5v2.192h1V6.5h-1Zm0 16.808V25.5h1v-2.192h-1ZM17.692 16c0 .935-.757 1.692-1.692 1.692v1A2.692 2.692 0 0 0 18.692 16h-1ZM16 17.692A1.692 1.692 0 0 1 14.308 16h-1A2.692 2.692 0 0 0 16 18.692v-1ZM14.308 16c0-.935.757-1.692 1.692-1.692v-1A2.692 2.692 0 0 0 13.308 16h1ZM16 14.308c.935 0 1.692.757 1.692 1.692h1A2.692 2.692 0 0 0 16 13.308v1Z" fill="#000"/></svg>
